X: 17275
T: Herman The German's
R: jig
M: 6/8
K: Eminor
EEE E^DE|G3 F3|BAG ABA|GFE ^D2F|
EEE E^DE|G3 F3|BAG ABA|1 GFE E2B,:|2 GFE E3||
BAG gBG|fBG g2g|BAG gBG|fBG a2a|
BAG gBG|fBG e2e|BAG ABA|1 GFE E3:|2 G2d _BAG||

